Adwaita++/actions/22/go-home.svg

<svg height="22" viewBox="0 0 22 22" width="22" xmlns="http://www.w3.org/2000/svg">
  <path d="m8.5 1.0039062-7 7h1.5v5.9999998h4v-4h3v4h4v-5.9999998h1.5z" fill="#444" transform="translate(3 3)"/>
</svg>

<svg xmlns="http://www.w3.org/2000/svg" width="22" height="22" viewBox="0 0 22 22">
 <defs>
  <style id="current-color-scheme" type="text/css">
   .ColorScheme-Text { color:#444444; } .ColorScheme-Highlight { color:#4285f4; }
  </style>
 </defs>
 <path style="fill:currentColor" class="ColorScheme-Text" d="M 8.5 1.0039062 L 1.5 8.0039062 L 3 8.0039062 L 3 14.003906 L 7 14.003906 L 7 10.003906 L 10 10.003906 L 10 14.003906 L 14 14.003906 L 14 8.0039062 L 15.5 8.0039062 L 8.5 1.0039062 z" transform="translate(3 3)"/>
</svg>
